public/images/cloud.svg

<svg width="353" height="233" viewBox="0 0 353 233" fill="none" xmlns="http://www.w3.org/2000/svg">
<path fill-rule="evenodd" clip-rule="evenodd" d="M311.847 93.3264C314.835 81.3588 314.913 68.4868 311.495 55.7278C300.751 15.6311 259.536 -8.16413 219.439 2.57976C196.697 8.67351 179.199 24.5695 170.273 44.5042C154.774 35.0441 135.577 31.7035 116.653 36.7743C91.5922 43.4893 73.4934 63.2173 67.6785 86.7403C62.1543 86.832 56.5521 87.5958 50.9735 89.0906C14.2978 98.9178 -7.46719 136.616 2.36004 173.292C12.1873 209.967 49.8854 231.732 86.5611 221.905C98.7341 218.643 109.264 212.311 117.542 203.965C134.344 220.842 159.459 228.511 184.112 221.905C197.928 218.203 209.629 210.545 218.321 200.477C235.422 225.544 267.075 238.327 298.045 230.028C337.239 219.526 360.499 179.24 349.997 140.046C344.332 118.903 329.999 102.397 311.847 93.3264Z" fill="white"/>
</svg>

<svg xmlns="http://www.w3.org/2000/svg" width="353" height="233" fill="none" viewBox="0 0 353 233"><path fill="#fff" fill-rule="evenodd" d="M311.847 93.326c2.988-11.967 3.066-24.84-.352-37.598C300.751 15.63 259.536-8.164 219.439 2.58c-22.742 6.094-40.24 21.99-49.166 41.924-15.499-9.46-34.696-12.8-53.62-7.73-25.06 6.715-43.16 26.443-48.975 49.966a69 69 0 0 0-16.704 2.35C14.298 98.919-7.468 136.617 2.36 173.293s47.525 58.44 84.201 48.613c12.173-3.262 22.703-9.594 30.981-17.94 16.802 16.877 41.917 24.546 66.57 17.94 13.816-3.702 25.517-11.36 34.209-21.428 17.101 25.067 48.754 37.85 79.724 29.551 39.194-10.502 62.454-50.788 51.952-89.982-5.665-21.143-19.998-37.649-38.15-46.72" clip-rule="evenodd"/></svg>
